static/img/kroki/cd580bf24b8e0110249c6a270b16bf8d.svg

<?xml version="1.0" encoding="us-ascii" standalone="no"?><svg xmlns="http://www.w3.org/2000/svg" xmlns:xlink="http://www.w3.org/1999/xlink" contentStyleType="text/css" height="374px" preserveAspectRatio="none" style="width:337px;height:374px;" version="1.1" viewBox="0 0 337 374" width="337px" zoomAndPan="magnify"><defs/><g><!--class azure_compute_disk_type_pricing--><g id="elem_azure_compute_disk_type_pricing"><rect codeLine="23" fill="#3D176E" height="39.7891" id="azure_compute_disk_type_pricing" rx="2.5" ry="2.5" style="stroke:#000D19;stroke-width:0.5;" width="323" x="7" y="328.58"/><ellipse cx="22" cy="348.4745" fill="#ADD1B2" rx="11" ry="11" style="stroke:#181818;stroke-width:1.0;"/><path d="M24.9688,354.1152 Q24.3906,354.412 23.75,354.5527 Q23.1094,354.7089 22.4063,354.7089 Q19.9063,354.7089 18.5781,353.0683 Q17.2656,351.412 17.2656,348.287 Q17.2656,345.162 18.5781,343.5058 Q19.9063,341.8495 22.4063,341.8495 Q23.1094,341.8495 23.75,342.0058 Q24.4063,342.162 24.9688,342.4589 L24.9688,345.1777 Q24.3438,344.5995 23.75,344.3339 Q23.1563,344.0527 22.5313,344.0527 Q21.1875,344.0527 20.5,345.1308 Q19.8125,346.1933 19.8125,348.287 Q19.8125,350.3808 20.5,351.4589 Q21.1875,352.5214 22.5313,352.5214 Q23.1563,352.5214 23.75,352.2558 Q24.3438,351.9745 24.9688,351.3964 L24.9688,354.1152 Z " fill="#000000"/><text fill="#D9B8FF" font-family="Helvetica" font-size="17" lengthAdjust="spacing" textLength="281" x="41" y="354.3598">azure_compute_disk_type_pricing</text></g><!--class microsoft_resource--><g id="elem_microsoft_resource"><rect codeLine="26" fill="#3D176E" height="39.7891" id="microsoft_resource" rx="2.5" ry="2.5" style="stroke:#000D19;stroke-width:0.5;" width="200" x="68.5" y="167.79"/><ellipse cx="83.5" cy="187.6845" fill="#ADD1B2" rx="11" ry="11" style="stroke:#181818;stroke-width:1.0;"/><path d="M86.4688,193.3252 Q85.8906,193.622 85.25,193.7627 Q84.6094,193.9189 83.9063,193.9189 Q81.4063,193.9189 80.0781,192.2783 Q78.7656,190.622 78.7656,187.497 Q78.7656,184.372 80.0781,182.7158 Q81.4063,181.0595 83.9063,181.0595 Q84.6094,181.0595 85.25,181.2158 Q85.9063,181.372 86.4688,181.6689 L86.4688,184.3877 Q85.8438,183.8095 85.25,183.5439 Q84.6563,183.2627 84.0313,183.2627 Q82.6875,183.2627 82,184.3408 Q81.3125,185.4033 81.3125,187.497 Q81.3125,189.5908 82,190.6689 Q82.6875,191.7314 84.0313,191.7314 Q84.6563,191.7314 85.25,191.4658 Q85.8438,191.1845 86.4688,190.6064 L86.4688,193.3252 Z " fill="#000000"/><text fill="#D9B8FF" font-family="Helvetica" font-size="17" lengthAdjust="spacing" textLength="158" x="102.5" y="193.5698">microsoft_resource</text></g><!--class resource--><g id="elem_resource"><rect codeLine="29" fill="#3D176E" height="39.7891" id="resource" rx="2.5" ry="2.5" style="stroke:#000D19;stroke-width:0.5;" width="113" x="112" y="7"/><ellipse cx="127" cy="26.8945" fill="#ADD1B2" rx="11" ry="11" style="stroke:#181818;stroke-width:1.0;"/><path d="M129.9688,32.5352 Q129.3906,32.832 128.75,32.9727 Q128.1094,33.1289 127.4063,33.1289 Q124.9063,33.1289 123.5781,31.4883 Q122.2656,29.832 122.2656,26.707 Q122.2656,23.582 123.5781,21.9258 Q124.9063,20.2695 127.4063,20.2695 Q128.1094,20.2695 128.75,20.4258 Q129.4063,20.582 129.9688,20.8789 L129.9688,23.5977 Q129.3438,23.0195 128.75,22.7539 Q128.1563,22.4727 127.5313,22.4727 Q126.1875,22.4727 125.5,23.5508 Q124.8125,24.6133 124.8125,26.707 Q124.8125,28.8008 125.5,29.8789 Q126.1875,30.9414 127.5313,30.9414 Q128.1563,30.9414 128.75,30.6758 Q129.3438,30.3945 129.9688,29.8164 L129.9688,32.5352 Z " fill="#000000"/><text fill="#D9B8FF" font-family="Helvetica" font-size="17" lengthAdjust="spacing" textLength="71" x="146" y="32.7798">resource</text></g><!--reverse link microsoft_resource to azure_compute_disk_type_pricing--><g id="link_microsoft_resource_azure_compute_disk_type_pricing"><path codeLine="32" d="M168.5,225.84 C168.5,256.36 168.5,297.69 168.5,328.25 " fill="none" id="microsoft_resource-backto-azure_compute_disk_type_pricing" style="stroke:#FFAF37;stroke-width:2.0;"/><polygon fill="none" points="168.5,207.84,162.5,225.84,174.5,225.84,168.5,207.84" style="stroke:#FFAF37;stroke-width:2.0;"/></g><!--reverse link resource to microsoft_resource--><g id="link_resource_microsoft_resource"><path codeLine="33" d="M168.5,65.05 C168.5,95.57 168.5,136.9 168.5,167.46 " fill="none" id="resource-backto-microsoft_resource" style="stroke:#FFAF37;stroke-width:2.0;"/><polygon fill="none" points="168.5,47.05,162.5,65.05,174.5,65.05,168.5,47.05" style="stroke:#FFAF37;stroke-width:2.0;"/></g><!--SRC=[XP7DJiCm48JlUGfBFKTAg22jnAMDXE1I8SezSknrQoNsHck7gWNUdOOMv2RzkUvytfbPhxK41gRnMsR0b40kSfMs3ITks8m8DpdMI6oa55VZh2y-eVKtWGKtm9wX_W2l1UyJxsijAWlEiRj0cdDHhGXRAm_hFN7hzX9O7r1vpPsRUK-wR3q4OUIqd2ZL9_jBHsEPPWymm90aq159aaIcqpvoq-fgxtzYgNV0ql1e2_GmY3cm-AMkfko88EIWw9z-CUChbrBR5RiFPc-7J6I1JkRBDPUuwMZ5QnVQE0y4wBSDv8DMC9r8bPs5Nox1aUXEn_Yk9IW4ccR_xONKhYgwPqL3MdGnFgFe-uWQBGWTAbyGE6n9GAYUpiwmZrzn7D_oYthuS4_q0m00]--></g></svg>

<svg xmlns="http://www.w3.org/2000/svg" width="337" height="374" viewBox="0 0 337 374"><rect width="323" height="39.789" x="7" y="328.58" fill="#3D176E" rx="2.5" ry="2.5" style="stroke:#000d19;stroke-width:.5"/><circle cx="22" cy="348.474" r="11" fill="#ADD1B2" style="stroke:#181818;stroke-width:1"/><path d="M24.969 354.115q-.578.297-1.219.438-.64.156-1.344.156-2.5 0-3.828-1.64-1.312-1.657-1.312-4.782t1.312-4.781q1.328-1.656 3.828-1.656.703 0 1.344.156.656.156 1.219.453v2.719q-.625-.579-1.219-.844-.594-.281-1.219-.281-1.343 0-2.031 1.078-.687 1.062-.687 3.156t.687 3.172q.688 1.062 2.031 1.062.625 0 1.219-.265.594-.281 1.219-.86z"/><text x="41" y="354.36" fill="#D9B8FF" font-family="Helvetica" font-size="17" textLength="281">azure_compute_disk_type_pricing</text><rect width="200" height="39.789" x="68.5" y="167.79" fill="#3D176E" rx="2.5" ry="2.5" style="stroke:#000d19;stroke-width:.5"/><circle cx="83.5" cy="187.685" r="11" fill="#ADD1B2" style="stroke:#181818;stroke-width:1"/><path d="M86.469 193.325q-.578.297-1.219.438-.64.156-1.344.156-2.5 0-3.828-1.64-1.312-1.657-1.312-4.782t1.312-4.781q1.328-1.656 3.828-1.656.703 0 1.344.156.656.156 1.219.453v2.719q-.625-.578-1.219-.844-.594-.281-1.219-.281-1.344 0-2.031 1.078-.687 1.062-.687 3.156t.687 3.172q.688 1.062 2.031 1.062.625 0 1.219-.265.594-.281 1.219-.86z"/><text x="102.5" y="193.57" fill="#D9B8FF" font-family="Helvetica" font-size="17" textLength="158">microsoft_resource</text><rect width="113" height="39.789" x="112" y="7" fill="#3D176E" rx="2.5" ry="2.5" style="stroke:#000d19;stroke-width:.5"/><circle cx="127" cy="26.895" r="11" fill="#ADD1B2" style="stroke:#181818;stroke-width:1"/><path d="M129.969 32.535q-.578.297-1.219.438-.64.156-1.344.156-2.5 0-3.828-1.64-1.312-1.657-1.312-4.782t1.312-4.781q1.328-1.656 3.828-1.656.703 0 1.344.156.656.156 1.219.453v2.719q-.625-.578-1.219-.844-.594-.281-1.219-.281-1.344 0-2.031 1.078-.687 1.062-.687 3.156t.687 3.172q.688 1.062 2.031 1.062.625 0 1.219-.265.594-.281 1.219-.86z"/><text x="146" y="32.78" fill="#D9B8FF" font-family="Helvetica" font-size="17" textLength="71">resource</text><path fill="none" d="M168.5 225.84v102.41m0-120.41-6 18h12zm0-142.79v102.41m0-120.41-6 18h12z" style="stroke:#ffaf37;stroke-width:2"/></svg>
